icons/svg/shields/h_barrier_toll_booth_shield.svg

<?xml version="1.0" encoding="UTF-8" standalone="no"?>
<!-- Created with Inkscape (http://www.inkscape.org/) -->

<svg
   xmlns:dc="http://purl.org/dc/elements/1.1/"
   xmlns:cc="http://creativecommons.org/ns#"
   xmlns:rdf="http://www.w3.org/1999/02/22-rdf-syntax-ns#"
   xmlns:svg="http://www.w3.org/2000/svg"
   xmlns="http://www.w3.org/2000/svg"
   xmlns:sodipodi="http://sodipodi.sourceforge.net/DTD/sodipodi-0.dtd"
   xmlns:inkscape="http://www.inkscape.org/namespaces/inkscape"
   version="1.0"
   width="16"
   height="16"
   id="svg2"
   sodipodi:version="0.32"
   inkscape:version="0.91 r13725"
   sodipodi:docname="h_barrier_toll_booth_shield.svg"
   inkscape:output_extension="org.inkscape.output.svg.inkscape">
  <metadata
     id="metadata10">
    <rdf:RDF>
      <cc:Work
         rdf:about="">
        <dc:format>image/svg+xml</dc:format>
        <dc:type
           rdf:resource="http://purl.org/dc/dcmitype/StillImage" />
        <cc:license
           rdf:resource="http://web.resource.org/cc/PublicDomain" />
        <dc:language>en</dc:language>
        <dc:title />
      </cc:Work>
    </rdf:RDF>
  </metadata>
  <sodipodi:namedview
     inkscape:window-height="1006"
     inkscape:window-width="1920"
     inkscape:pageshadow="2"
     inkscape:pageopacity="0.0"
     guidetolerance="10.0"
     gridtolerance="10.0"
     objecttolerance="10.0"
     borderopacity="1.0"
     bordercolor="#666666"
     pagecolor="#ffffff"
     id="base"
     showgrid="false"
     inkscape:zoom="22.627417"
     inkscape:cx="7.6779382"
     inkscape:cy="7.8835989"
     inkscape:window-x="1920"
     inkscape:window-y="0"
     inkscape:current-layer="svg2"
     inkscape:window-maximized="1" />
  <defs
     id="defs4">
    <inkscape:perspective
       sodipodi:type="inkscape:persp3d"
       inkscape:vp_x="0 : 290 : 1"
       inkscape:vp_y="0 : 1000 : 0"
       inkscape:vp_z="580 : 290 : 1"
       inkscape:persp3d-origin="290 : 193.33333 : 1"
       id="perspective12" />
    <style
       type="text/css"
       id="style6">
   
    .fil0 {fill:#EF7900}
   
  </style>
    <inkscape:perspective
       id="perspective6807"
       inkscape:persp3d-origin="29.116032 : 19.410688 : 1"
       inkscape:vp_z="58.232063 : 29.116032 : 1"
       inkscape:vp_y="0 : 1000 : 0"
       inkscape:vp_x="0 : 29.116032 : 1"
       sodipodi:type="inkscape:persp3d" />
    <inkscape:perspective
       id="perspective6954"
       inkscape:persp3d-origin="290 : 193.33333 : 1"
       inkscape:vp_z="580 : 290 : 1"
       inkscape:vp_y="0 : 1000 : 0"
       inkscape:vp_x="0 : 290 : 1"
       sodipodi:type="inkscape:persp3d" />
    <inkscape:perspective
       id="perspective2541"
       inkscape:persp3d-origin="240 : 160 : 1"
       inkscape:vp_z="480 : 240 : 1"
       inkscape:vp_y="0 : 1000 : 0"
       inkscape:vp_x="0 : 240 : 1"
       sodipodi:type="inkscape:persp3d" />
    <inkscape:perspective
       id="perspective2750"
       inkscape:persp3d-origin="215 : 143.33333 : 1"
       inkscape:vp_z="430 : 215 : 1"
       inkscape:vp_y="0 : 1000 : 0"
       inkscape:vp_x="0 : 215 : 1"
       sodipodi:type="inkscape:persp3d" />
    <inkscape:perspective
       id="perspective3730"
       inkscape:persp3d-origin="88.929146 : 101.19778 : 1"
       inkscape:vp_z="177.85829 : 151.79668 : 1"
       inkscape:vp_y="0 : 1000 : 0"
       inkscape:vp_x="0 : 151.79668 : 1"
       sodipodi:type="inkscape:persp3d" />
  </defs>
  <path
     style="color:#000000;font-style:normal;font-variant:normal;font-weight:normal;font-stretch:normal;font-size:323.14517212px;line-height:125%;font-family:'Arial Unicode MS';-inkscape-font-specification:'Arial Unicode MS';text-align:start;writing-mode:lr-tb;text-anchor:start;clip-rule:nonzero;display:inline;overflow:visible;visibility:visible;opacity:0.81199999;isolation:auto;mix-blend-mode:normal;color-interpolation:sRGB;color-interpolation-filters:linearRGB;solid-color:#000000;solid-opacity:1;fill:#ebe7e4;fill-opacity:1;fill-rule:nonzero;stroke:none;stroke-width:0.78325456;stroke-linecap:butt;stroke-linejoin:miter;stroke-miterlimit:4;stroke-dasharray:none;stroke-dashoffset:0;stroke-opacity:1;marker:none;color-rendering:auto;image-rendering:auto;shape-rendering:auto;text-rendering:auto;enable-background:accumulate"
     d="M 3.0219875,1.4693925 C 2.5440971,1.4694101 2.2216855,1.680369 1.977275,1.92478 1.7328658,2.1691893 1.5219051,2.4916039 1.5218875,2.9694925 l 0,7.2326255 c 1.76e-5,0.477889 0.2109707,0.800298 0.4553875,1.044712 0.2444111,0.244411 0.5668215,0.455369 1.0447125,0.455388 l 1.0447125,0 c 0.3840274,-1.6e-5 0.6018802,-0.173439 0.8572,-0.375025 -0.001,0.02678 -0.001,0.05358 0,0.08036 0.058782,0.700415 0.3733819,1.391192 0.910775,1.848338 0.4994031,0.424832 0.6033689,0.497338 1.2121344,0.692888 0.2451855,0.989346 2.1736219,0.814386 2.1363031,-0.183926 0.4637997,-0.111405 0.8710485,-0.187501 1.2590125,-0.562537 0.465923,-0.450409 0.770461,-1.103967 0.803625,-1.794763 0.197091,0.12841 0.361956,0.294801 0.669688,0.294663 l 1.232225,0 c 0.454201,2.43e-4 0.824205,-0.288462 0.96435,-0.4286 0.249038,-0.249039 0.428804,-0.536947 0.4286,-0.991138 l 0,-4.018125 c 2.43e-4,-0.4543185 -0.179626,-0.7421518 -0.4286,-0.9911375 -0.101906,-0.1019103 -0.405387,-0.2328209 -0.696475,-0.32145 -0.01285,0.00486 0.173036,-0.059668 0.160725,-0.053575 -0.01231,0.00609 0.145592,-0.087633 0.133937,-0.080363 -0.01166,0.00727 0.144823,-0.1155282 0.133938,-0.10715 -0.01089,0.00837 0.143949,-0.1165548 0.133937,-0.10715 -0.01001,0.00941 0.116192,-0.1442785 0.10715,-0.1339375 -0.009,0.010341 0.115135,-0.145115 0.10715,-0.1339375 -0.008,0.011178 0.114001,-0.1458438 0.10715,-0.1339375 -0.0069,0.011907 0.08601,-0.1732455 0.08036,-0.160725 -0.0057,0.01252 0.05797,-0.1469517 0.05358,-0.1339375 -0.0044,0.013014 0.05667,-0.1741073 0.05358,-0.160725 -0.0031,0.013383 0.02856,-0.2011342 0.02679,-0.1875125 -0.0018,0.013622 4.29e-4,-0.1744548 0,-0.160725 -4.29e-4,0.01373 -9.43e-4,-0.1744308 0,-0.160725 9.43e-4,0.013706 -0.02904,-0.2010622 -0.02679,-0.1875125 0.0022,0.01355 -0.03036,-0.173988 -0.02679,-0.160725 0.0036,0.013263 -0.05844,-0.1735736 -0.05358,-0.160725 0.0049,0.012849 -0.05967,-0.1730356 -0.05358,-0.160725 0.0061,0.01231 -0.08763,-0.1455914 -0.08036,-0.1339375 0.0073,0.011654 -0.11553,-0.1448224 -0.10715,-0.1339375 0.0084,0.010885 -0.116557,-0.1439486 -0.10715,-0.1339375 0.0094,0.010011 -0.14428,-0.116191 -0.133938,-0.10715 0.01034,0.00904 -0.145115,-0.1151336 -0.133937,-0.10715 0.01118,0.00798 -0.145845,-0.1139995 -0.133938,-0.10715 0.01191,0.00685 -0.173246,-0.086012 -0.160725,-0.080363 0.01252,0.00565 -0.146952,-0.05797 -0.133937,-0.053575 0.01301,0.00439 -0.174108,-0.056673 -0.160725,-0.053575 0.01338,0.0031 -0.201135,-0.028559 -0.187513,-0.026787 0.01362,0.00177 -0.174455,-4.273e-4 -0.160725,0 0.01373,4.274e-4 -0.174431,9.206e-4 -0.160725,0 0.01371,-9.206e-4 -0.201062,0.029047 -0.187512,0.026787 -0.02678,-0.001 -0.05358,-0.001 -0.08036,0 0.0045,-0.00118 -0.02436,0.018104 -0.05358,0.026787 -0.02921,0.00868 -0.05798,0.028256 -0.05358,0.026787 l -6.75045,1.5001 0,-0.2410875 C 5.5667889,2.6663059 5.4699606,2.2565414 5.1382,1.92478 4.8064397,1.5930208 4.5445849,1.4694101 4.0667,1.4693925 Z M 10.790363,5.56788 C 10.654243,5.7689875 10.495558,5.9462816 10.4957,6.264355 l 0,1.125075 C 10.365119,7.2086788 10.242533,7.0184171 10.0671,6.8804675 9.822054,6.6877934 9.7289183,6.6591746 9.5045625,6.585805 c -0.00296,-9.696e-4 0.00296,-0.025832 0,-0.026787 0.00388,0.011972 -0.031334,-0.092098 -0.026788,-0.080363 0.00455,0.011735 -0.031987,-0.091823 -0.026787,-0.080362 0.0052,0.011461 -0.032623,-0.091513 -0.026787,-0.080363 0.00584,0.01115 -0.060029,-0.091167 -0.053575,-0.080362 0.00645,0.010804 -0.033838,-0.063999 -0.026788,-0.053575 0.00705,0.010424 -0.061201,-0.090374 -0.053575,-0.080362 0.00763,0.010011 -0.061752,-0.063141 -0.053575,-0.053575 0.00818,0.00957 -0.062277,-0.062666 -0.053575,-0.053575 0.00669,0.00699 -0.037137,-0.037135 -0.053575,-0.053575 -0.00493,-0.00493 -0.00213,-0.028769 0,-0.026787 z M 6.74545,6.478655 c -0.00421,0.010114 -0.028266,0.030896 -0.026788,0.026788 0.00612,-0.017022 -0.031516,0.1246112 -0.026788,0.10715 C 6.3917135,6.7287998 6.2158779,6.68566 5.8547656,6.9943144 5.6995807,7.1460943 5.6836141,7.1742704 5.5734969,7.3626425 l -0.0067,-0.6429 z m -1.17865,3.4288 c 0.073542,0.126027 0.092725,0.266035 0.1875125,0.375025 -0.093571,0.02344 -0.1839493,0.05959 -0.267875,0.10715 0.00673,-0.06104 0.080361,-0.132744 0.080362,-0.187512 z"
     id="path4781"
     inkscape:connector-curvature="0"
     sodipodi:nodetypes="csccsccccsccsccccccsccccccccccccsscccccccccccccsssccscccsccccccscssssscccccccscccccccccc" />
</svg>

<svg width="16" height="16" viewBox="0 0 16 16" fill="none" xmlns="http://www.w3.org/2000/svg">
<path opacity="0.812" d="M3.02198 1.46939C2.54409 1.46941 2.22168 1.68037 1.97727 1.92478C1.73286 2.16919 1.5219 2.4916 1.52188 2.96949V10.2021C1.5219 10.68 1.73285 11.0024 1.97727 11.2468C2.22168 11.4912 2.54409 11.7022 3.02198 11.7022H4.06669C4.45072 11.7022 4.66857 11.5288 4.92389 11.3272C4.92289 11.354 4.92289 11.3808 4.92389 11.4076C4.98268 12.108 5.29728 12.7987 5.83467 13.2559C6.33407 13.6807 6.43804 13.7532 7.0468 13.9488C7.29199 14.9381 9.22042 14.7632 9.18311 13.7649C9.64691 13.6534 10.0542 13.5774 10.4421 13.2023C10.908 12.7519 11.2126 12.0983 11.2457 11.4076C11.4428 11.536 11.6077 11.7024 11.9154 11.7022H13.1477C13.6019 11.7025 13.9719 11.4138 14.112 11.2736C14.361 11.0246 14.5408 10.7367 14.5406 10.2825V6.26435C14.5408 5.81003 14.361 5.5222 14.112 5.27321C14.0101 5.1713 13.7066 5.04039 13.4155 4.95176C13.4027 4.95662 13.5886 4.8921 13.5763 4.89819C13.5639 4.90428 13.7218 4.81056 13.7102 4.81783C13.6985 4.8251 13.855 4.7023 13.8441 4.71068C13.8332 4.71905 13.9881 4.59412 13.9781 4.60353C13.9681 4.61294 14.0943 4.45925 14.0852 4.46959C14.0762 4.47993 14.2004 4.32447 14.1924 4.33565C14.1844 4.34683 14.3064 4.18981 14.2995 4.20171C14.2926 4.21362 14.3855 4.02847 14.3799 4.04099C14.3742 4.05351 14.4378 3.89404 14.4335 3.90705C14.4291 3.92006 14.4901 3.73294 14.487 3.74633C14.4839 3.75971 14.5156 3.54519 14.5138 3.55881C14.512 3.57244 14.5143 3.38436 14.5138 3.39809C14.5134 3.41182 14.5129 3.22366 14.5138 3.23736C14.5148 3.25107 14.4848 3.0363 14.487 3.04985C14.4892 3.0634 14.4567 2.87586 14.4602 2.88913C14.4638 2.90239 14.4018 2.71555 14.4067 2.7284C14.4116 2.74125 14.347 2.55537 14.3531 2.56768C14.3592 2.57999 14.2655 2.42208 14.2727 2.43374C14.28 2.44539 14.1572 2.28892 14.1656 2.2998C14.174 2.31069 14.049 2.15585 14.0584 2.16586C14.0678 2.17587 13.9141 2.04967 13.9245 2.05871C13.9348 2.06775 13.7794 1.94358 13.7906 1.95156C13.8017 1.95954 13.6447 1.83756 13.6566 1.84441C13.6685 1.85126 13.4834 1.7584 13.4959 1.76405C13.5084 1.7697 13.3489 1.70608 13.362 1.71048C13.375 1.71487 13.1878 1.6538 13.2012 1.6569C13.2146 1.66 13.0001 1.62834 13.0137 1.63011C13.0273 1.63188 12.8393 1.62969 12.853 1.63011C12.8667 1.63054 12.6786 1.63103 12.6923 1.63011C12.706 1.62919 12.4912 1.65916 12.5048 1.6569C12.478 1.6559 12.4512 1.6559 12.4244 1.6569C12.4289 1.65572 12.4 1.675 12.3708 1.68369C12.3416 1.69237 12.3128 1.71194 12.3172 1.71047L5.56678 3.21057V2.96949C5.56678 2.6663 5.46995 2.25654 5.13819 1.92478C4.80643 1.59302 4.54458 1.46941 4.06669 1.46939H3.02198ZM10.7904 5.56788C10.6542 5.76899 10.4956 5.94628 10.4957 6.26435V7.38943C10.3651 7.20868 10.2425 7.01842 10.0671 6.88047C9.82205 6.68779 9.72891 6.65917 9.50456 6.5858C9.5016 6.58483 9.50752 6.55997 9.50456 6.55902C9.50844 6.57099 9.47322 6.46692 9.47777 6.47865C9.48232 6.49039 9.44578 6.38683 9.45098 6.39829C9.45618 6.40975 9.41836 6.30678 9.42419 6.31793C9.43003 6.32908 9.36416 6.22676 9.37062 6.23757C9.37707 6.24837 9.33678 6.17357 9.34383 6.18399C9.35088 6.19442 9.28263 6.09362 9.29026 6.10363C9.29789 6.11364 9.2285 6.04049 9.23668 6.05005C9.24486 6.05962 9.1744 5.98739 9.18311 5.99648C9.1898 6.00347 9.14597 5.95934 9.12953 5.9429C9.1246 5.93797 9.1274 5.91414 9.12953 5.91612L10.7904 5.56788ZM6.74544 6.47865C6.74123 6.48877 6.71718 6.50955 6.71866 6.50544C6.72478 6.48842 6.68714 6.63005 6.69187 6.61259C6.39171 6.7288 6.21587 6.68566 5.85476 6.99431C5.69957 7.14609 5.68361 7.17427 5.57349 7.36264L5.56679 6.71974L6.74544 6.47865ZM5.56679 9.90745C5.64034 10.0335 5.65952 10.1735 5.75431 10.2825C5.66073 10.3059 5.57036 10.3421 5.48643 10.3896C5.49316 10.3286 5.56679 10.2569 5.56679 10.2021V9.90745Z" fill="#EBE7E4"/>
</svg>
